findly-builder/apps/searchassist/src/assets/icons/star.svg

<svg width="14" height="14" viewBox="0 0 14 14" fill="none" xmlns="http://www.w3.org/2000/svg">
<path d="M7.05707 0.8119C6.88329 0.396078 6.29869 0.396017 6.12485 0.811817C5.49816 2.31081 4.52078 4.65052 4.52078 4.65052L0.593957 5.08057C0.16459 5.1276 -0.012839 5.66016 0.301355 5.95883L3.25649 8.76796L2.42195 12.8863C2.33352 13.3227 2.80351 13.6557 3.18099 13.4242L6.59106 11.3324L9.99786 13.4241C10.3752 13.6557 10.8452 13.323 10.7571 12.8867L9.92562 8.76796L12.8778 5.95864C13.1918 5.65991 13.0143 5.12762 12.5851 5.08058L8.66133 4.65052L7.05707 0.8119ZM6.59106 2.32102L7.96202 5.59825L11.3914 5.97256L8.82332 8.41754L9.53448 11.9456L6.59106 10.1378L3.64368 11.9456L4.35879 8.41754L1.79466 5.97256L5.22009 5.59825L6.59106 2.32102Z" fill="#FFDA2D"/>
</svg>

<svg width="14" height="14" fill="none" xmlns="http://www.w3.org/2000/svg"><path d="M7.057.812a.504.504 0 0 0-.932 0L4.52 4.65l-3.927.43a.511.511 0 0 0-.293.878l2.955 2.809-.834 4.118a.507.507 0 0 0 .759.538l3.41-2.092 3.407 2.092a.507.507 0 0 0 .76-.537l-.832-4.119 2.952-2.81a.511.511 0 0 0-.293-.877L8.66 4.65 7.057.81ZM6.591 2.32l1.371 3.277 3.43.375-2.569 2.445.711 3.528-2.943-1.808-2.947 1.808.715-3.528-2.564-2.445 3.425-.375L6.591 2.32Z" fill="#FFDA2D"/></svg>
